lib/icons-source/copy.svg

<svg width="21" height="25" viewBox="0 0 21 25" fill="none" xmlns="http://www.w3.org/2000/svg">
<g clip-path="url(#clip0_1_2)">
<rect width="21" height="25" fill="white"/>
<path d="M13.2042 25H3.89791C1.74854 25 0 23.2477 0 21.0938V7.86133C0 5.70736 1.74854 3.95508 3.89791 3.95508H13.2042C15.3535 3.95508 17.1021 5.70736 17.1021 7.86133V21.0938C17.1021 23.2477 15.3535 25 13.2042 25ZM3.89791 5.9082C2.82332 5.9082 1.94896 6.78444 1.94896 7.86133V21.0938C1.94896 22.1706 2.82332 23.0469 3.89791 23.0469H13.2042C14.2788 23.0469 15.1531 22.1706 15.1531 21.0938V7.86133C15.1531 6.78444 14.2788 5.9082 13.2042 5.9082H3.89791ZM21 18.6523V3.90625C21 1.75228 19.2515 0 17.1021 0H6.28538C5.74714 0 5.3109 0.437164 5.3109 0.976562C5.3109 1.51596 5.74714 1.95312 6.28538 1.95312H17.1021C18.1767 1.95312 19.051 2.82936 19.051 3.90625V18.6523C19.051 19.1917 19.4873 19.6289 20.0255 19.6289C20.5638 19.6289 21 19.1917 21 18.6523Z" fill="black"/>
</g>
<defs>
<clipPath id="clip0_1_2">
<rect width="21" height="25" fill="white"/>
</clipPath>
</defs>
</svg>

<svg viewBox="0 0 21 25" fill="none" xmlns="http://www.w3.org/2000/svg"><rect fill="white"/><path d="M13.204 25H3.898A3.906 3.906 0 0 1 0 21.094V7.86a3.906 3.906 0 0 1 3.898-3.906h9.306a3.906 3.906 0 0 1 3.898 3.906v13.233A3.906 3.906 0 0 1 13.204 25M3.898 5.908a1.953 1.953 0 0 0-1.949 1.953v13.233c0 1.077.874 1.953 1.949 1.953h9.306a1.953 1.953 0 0 0 1.95-1.953V7.86a1.953 1.953 0 0 0-1.95-1.953zM21 18.652V3.906A3.906 3.906 0 0 0 17.102 0H6.285a.975.975 0 0 0 0 1.953h10.817c1.075 0 1.949.876 1.949 1.953v14.746a.976.976 0 1 0 1.949 0" fill="black"/></svg>
